!!!COM: Fe/licien David
!!!CNT: Francais
!!!TXO: Francais
!!!OTL: L'Oublier!.. Jamais!
!!!LYR: Emile Barateau
!!!ENC: Jacob Pegg
!!!YOR: Romantic French Song 1830-1870, David Tunley, ed., New York: Garland Publishing, Inc., 1995
!!!ODT: 1847/
!!NB: Vocal melody and text only encoded.
!!NB: Only first strophe and refrain encoded.
**kern	**silbe
*clef G2	*
*k[]	*
*M6/8	*
=1	=1
2.r	.
=2	=2
2.r	.
=3	=3
2.r	.
=4	=4
2.r	.
=5	=5
4r	.
8r	.
4r	.
{8e	{Je
=6	=6
4ee	peux,
8dd	en
4cc	sa
8b	pre/-
=7	=7
(8b	-sen-
8a	|
8g#)	|
4a}	-ce,}
{8gn	{He/-
=8	=8
4f	-las!
8a	sans
4dd	es-
8ff	-pe/-
=9	=9
(8ff	-ran-
8ee	|
8dd)	|
8ee}	-ce,}
8r	.
{8ee	{Re^-
=10	=10
4gg	-ver
8ff	de
4ee	ma
8dd	souf-
=11	=11
4dd	-fran-
8cc}	-ce;}
{[4.ff	{Mais,
=12	=12
8ff]	|
8ee	l'a-
8dd	-vou-
4ee	-er,
8g#	ja-
=13	=13
4.a}	-mais!}
8r	.
{(8gn	{Je
8a)	|
=14	=14
4b	peux,
8b	quand
(8cc	tout
8b)	|
8a	me
=15	=15
(4b	bles-
8gg)	|
4ee}	-se,}
{8b	{Pleu-
=16	=16
4cc	-rer
8b	de
(8a	la
8b)	|
8cc	tris-
=17	=17
(4b	-tes-
8a)	|
4g}	-se}
{8b	{Qui,
=18	=18
4ee	cha-
8ee	-que
(8ee	jour,
8dd)	|
8cc	m'op-
=19	=19
4b	-pres-
8b}	-se;}
{[4.cc	{Mais,
=20	=20
8cc]	|
8b	la
8e	gue/-
4g	-rir,
8f#	ja-
=21	=21
4e}	mais!}
8r	.
{[4.ffn	{Mais,
=22	=22
8ffn]	|
8ee	la
8dd	gue/-
4cc	-rir,
8b	ja-
=23	=23
4.a}	-mais!}
4r	.
8r	.
*-	*-
